packages/larva-svg/src/icons/instagram.svg

<?xml version="1.0" encoding="UTF-8"?>
<svg width="19px" height="19px" viewBox="0 0 19 19" version="1.1" xmlns="http://www.w3.org/2000/svg" xmlns:xlink="http://www.w3.org/1999/xlink">
    <!-- Generator: sketchtool 52.5 (67469) - http://www.bohemiancoding.com/sketch -->
    <title>Instagram Icon</title>
    <g id="Author-Page" stroke="none" stroke-width="1" fill="none" fill-rule="evenodd">
        <g id="Author-Page-/-Desktop-XL" transform="translate(-459.000000, -481.000000)" fill="#000000">
            <g id="About-Author" transform="translate(20.000000, 425.000000)">
                <g id="Social-Icons" transform="translate(212.000000, 56.000000)">
                    <g id="Instagram" transform="translate(227.000000, 0.000000)">
                        <path d="M9.50001886,0 C12.0800451,0 12.4035618,0.0109359897 13.4168379,0.0571688291 C14.4280021,0.103288537 15.118591,0.263896745 15.722861,0.498756552 C16.34757,0.741497814 16.8773621,1.06633442 17.4055327,1.5944673 C17.9336656,2.1226379 18.2585022,2.65243003 18.5012812,3.27713902 C18.7361033,3.88140902 18.8967115,4.57199791 18.9428312,5.58316215 C18.989064,6.59643816 19,6.91995491 19,9.50001886 C19,12.0800451 18.989064,12.4035618 18.9428312,13.4168379 C18.8967115,14.4280021 18.7361033,15.118591 18.5012812,15.722861 C18.2585022,16.34757 17.9336656,16.8773621 17.4055327,17.4055327 C16.8773621,17.9336656 16.34757,18.2585022 15.722861,18.5012812 C15.118591,18.7361033 14.4280021,18.8967115 13.4168379,18.9428312 C12.4035618,18.989064 12.0800451,19 9.50001886,19 C6.91995491,19 6.59643816,18.989064 5.58316215,18.9428312 C4.57199791,18.8967115 3.88140902,18.7361033 3.27713902,18.5012812 C2.65243003,18.2585022 2.1226379,17.9336656 1.5944673,17.4055327 C1.06633442,16.8773621 0.741497814,16.34757 0.498756552,15.722861 C0.263896745,15.118591 0.103288537,14.4280021 0.0571688291,13.4168379 C0.0109359897,12.4035618 0,12.0800451 0,9.50001886 C0,6.91995491 0.0109359897,6.59643816 0.0571688291,5.58316215 C0.103288537,4.57199791 0.263896745,3.88140902 0.498756552,3.27713902 C0.741497814,2.65243003 1.06633442,2.1226379 1.5944673,1.5944673 C2.1226379,1.06633442 2.65243003,0.741497814 3.27713902,0.498756552 C3.88140902,0.263896745 4.57199791,0.103288537 5.58316215,0.0571688291 C6.59643816,0.0109359897 6.91995491,0 9.50001886,0 Z M9.50001886,1.71170865 C6.96339718,1.71170865 6.66292144,1.7214002 5.66118478,1.7671051 C4.73494416,1.80934065 4.23192634,1.96410375 3.89717193,2.09420432 C3.4537364,2.26654044 3.13727148,2.47240102 2.8048551,2.8048551 C2.47240102,3.13727148 2.26654044,3.4537364 2.09420432,3.89717193 C1.96410375,4.23192634 1.80934065,4.73494416 1.7671051,5.66118478 C1.7214002,6.66292144 1.71170865,6.96339718 1.71170865,9.50001886 C1.71170865,12.0366028 1.7214002,12.3370786 1.7671051,13.3388152 C1.80934065,14.2650558 1.96410375,14.7680737 2.09420432,15.1028281 C2.26654044,15.5462636 2.47243873,15.8627285 2.8048551,16.1951449 C3.13727148,16.527599 3.4537364,16.7334596 3.89717193,16.9057957 C4.23192634,17.0358962 4.73494416,17.1906594 5.66118478,17.2328949 C6.66280831,17.2785998 6.96320863,17.2882913 9.50001886,17.2882913 C12.0367914,17.2882913 12.3372294,17.2785998 13.3388152,17.2328949 C14.2650558,17.1906594 14.7680737,17.0358962 15.1028281,16.9057957 C15.5462636,16.7334596 15.8627285,16.527599 16.1951449,16.1951449 C16.527599,15.8627285 16.7334596,15.5462636 16.9057957,15.1028281 C17.0358962,14.7680737 17.1906594,14.2650558 17.2328949,13.3388152 C17.2785998,12.3370786 17.2882913,12.0366028 17.2882913,9.50001886 C17.2882913,6.96339718 17.2785998,6.66292144 17.2328949,5.66118478 C17.1906594,4.73494416 17.0358962,4.23192634 16.9057957,3.89717193 C16.7334596,3.4537364 16.527599,3.13727148 16.1951449,2.8048551 C15.8627285,2.47240102 15.5462636,2.26654044 15.1028281,2.09420432 C14.7680737,1.96410375 14.2650558,1.80934065 13.3388152,1.7671051 C12.3370786,1.7214002 12.0366028,1.71170865 9.50001886,1.71170865 Z M9.50001886,4.62162468 C12.1942696,4.62162468 14.3783753,6.80573038 14.3783753,9.50001886 C14.3783753,12.1942696 12.1942696,14.3783753 9.50001886,14.3783753 C6.80573038,14.3783753 4.62162468,12.1942696 4.62162468,9.50001886 C4.62162468,6.80573038 6.80573038,4.62162468 9.50001886,4.62162468 Z M9.50001886,12.6666667 C11.2489099,12.6666667 12.6666667,11.2489099 12.6666667,9.50001886 C12.6666667,7.75109013 11.2489099,6.33333333 9.50001886,6.33333333 C7.75109013,6.33333333 6.33333333,7.75109013 6.33333333,9.50001886 C6.33333333,11.2489099 7.75109013,12.6666667 9.50001886,12.6666667 Z M15.7111331,4.42888729 C15.7111331,5.05849861 15.200724,5.56886994 14.5711127,5.56886994 C13.9415391,5.56886994 13.4311301,5.05849861 13.4311301,4.42888729 C13.4311301,3.79927596 13.9415391,3.28886692 14.5711127,3.28886692 C15.200724,3.28886692 15.7111331,3.79927596 15.7111331,4.42888729 Z"></path>
                    </g>
                </g>
            </g>
        </g>
    </g>
</svg>

<svg width="19" height="19" xmlns="http://www.w3.org/2000/svg"><path d="M9.5 0c2.58 0 2.904.01 3.917.057 1.011.046 1.702.207 2.306.442a4.657 4.657 0 0 1 1.683 1.095A4.657 4.657 0 0 1 18.5 3.277c.235.604.396 1.295.442 2.306C18.989 6.596 19 6.92 19 9.5s-.01 2.904-.057 3.917c-.046 1.011-.207 1.702-.442 2.306a4.657 4.657 0 0 1-1.095 1.683 4.657 4.657 0 0 1-1.683 1.095c-.604.235-1.295.396-2.306.442-1.013.046-1.337.057-3.917.057s-2.904-.01-3.917-.057c-1.011-.046-1.702-.207-2.306-.442a4.657 4.657 0 0 1-1.683-1.095A4.657 4.657 0 0 1 .5 15.723c-.235-.604-.396-1.295-.442-2.306C.011 12.404 0 12.08 0 9.5s.01-2.904.057-3.917C.103 4.572.264 3.881.5 3.277a4.657 4.657 0 0 1 1.095-1.683A4.657 4.657 0 0 1 3.277.5C3.881.264 4.572.103 5.583.057 6.596.011 6.92 0 9.5 0zm0 1.712c-2.537 0-2.837.01-3.839.055-.926.042-1.43.197-1.764.327-.443.173-.76.378-1.092.71a2.943 2.943 0 0 0-.71 1.093c-.13.335-.286.838-.328 1.764-.046 1.002-.055 1.302-.055 3.839s.01 2.837.055 3.839c.042.926.197 1.43.327 1.764.173.443.378.76.71 1.092.333.333.65.538 1.093.71.335.13.838.286 1.764.328 1.002.046 1.302.055 3.839.055s2.837-.01 3.839-.055c.926-.042 1.43-.197 1.764-.327.443-.173.76-.378 1.092-.71.333-.333.538-.65.71-1.093.13-.335.286-.838.328-1.764.046-1.002.055-1.302.055-3.839s-.01-2.837-.055-3.839c-.042-.926-.197-1.43-.327-1.764a2.943 2.943 0 0 0-.71-1.092 2.943 2.943 0 0 0-1.093-.71c-.335-.13-.838-.286-1.764-.328-1.002-.046-1.302-.055-3.839-.055zm0 2.91a4.878 4.878 0 1 1 0 9.756 4.878 4.878 0 0 1 0-9.756zm0 8.045a3.167 3.167 0 1 0 0-6.334 3.167 3.167 0 0 0 0 6.334zm6.211-8.238a1.14 1.14 0 1 1-2.28 0 1.14 1.14 0 0 1 2.28 0z" fill="#000" fill-rule="evenodd"/></svg>
